mobile/24/svg/cryptominer-24.svg

<svg width="24" height="24" fill="none" xmlns="http://www.w3.org/2000/svg"><path d="M13 4.5V2h-1.75v2.5H7.604c-.401 0-.784.16-1.065.444L4.935 6.562c-.279.281-.435.66-.435 1.056V9.25a1.5 1.5 0 0 0 1.5 1.5h5.25V22H13V10.75h5a1.5 1.5 0 0 0 1.5-1.5V6A1.5 1.5 0 0 0 18 4.5h-5z" fill="#000"/></svg>

<svg width="24" height="24" viewBox="0 0 24 24" fill="none" xmlns="http://www.w3.org/2000/svg">
<path d="M13 4.5V2H11.25V4.5H7.604C7.203 4.5 6.82 4.66 6.539 4.944L4.935 6.562C4.656 6.843 4.5 7.222 4.5 7.618V9.25C4.5 10.078 5.172 10.75 6 10.75H11.25V22H13V10.75H18C18.828 10.75 19.5 10.078 19.5 9.25V6C19.5 5.172 18.828 4.5 18 4.5H13Z" fill="black"/>
</svg>
